src/components/Sprite/svg/flag.svg

<svg xmlns="http://www.w3.org/2000/svg" viewBox="0 0 128 128">
    <path fill="#37474f" d="M108 110a20 6 0 01-20 6 20 6 0 01-20-6 20 6 0 0120-6 20 6 0 0120 6z"/>
    <path fill="#78909c" d="M88 20c2.216 0 4 1.784 4 4v86h-8V24c0-2.216 1.784-4 4-4z"/>
    <path fill="#d32f2f" d="M84 24c-20-8-40 8-60 0v56c20 8 40-8 60 0V24"/>
</svg>

<?xml version="1.0" encoding="UTF-8" standalone="no"?>
<svg
   xmlns:dc="http://purl.org/dc/elements/1.1/"
   xmlns:cc="http://creativecommons.org/ns#"
   xmlns:rdf="http://www.w3.org/1999/02/22-rdf-syntax-ns#"
   xmlns:svg="http://www.w3.org/2000/svg"
   xmlns="http://www.w3.org/2000/svg"
   xmlns:sodipodi="http://sodipodi.sourceforge.net/DTD/sodipodi-0.dtd"
   xmlns:inkscape="http://www.inkscape.org/namespaces/inkscape"
   sodipodi:docname="flag.svg"
   inkscape:version="1.0 (4035a4f, 2020-05-01)"
   id="svg8"
   version="1.1"
   viewBox="0 0 128 128"
   height="128"
   width="128">
  <defs
     id="defs2" />
  <sodipodi:namedview
     inkscape:bbox-nodes="true"
     inkscape:bbox-paths="true"
     inkscape:snap-bbox="true"
     inkscape:window-maximized="0"
     inkscape:window-y="25"
     inkscape:window-x="0"
     inkscape:window-height="1359"
     inkscape:window-width="2560"
     units="px"
     showgrid="true"
     inkscape:document-rotation="0"
     inkscape:current-layer="layer1"
     inkscape:document-units="px"
     inkscape:cy="73.047612"
     inkscape:cx="126.7811"
     inkscape:zoom="7.542801"
     inkscape:pageshadow="2"
     inkscape:pageopacity="0.0"
     borderopacity="1.0"
     bordercolor="#666666"
     pagecolor="#ffffff"
     id="base">
    <inkscape:grid
       empspacing="4"
       id="grid10"
       type="xygrid" />
    <inkscape:grid
       empspacing="2"
       spacingy="8"
       spacingx="8"
       id="grid12"
       type="xygrid" />
  </sodipodi:namedview>
  <metadata
     id="metadata5">
    <rdf:RDF>
      <cc:Work
         rdf:about="">
        <dc:format>image/svg+xml</dc:format>
        <dc:type
           rdf:resource="http://purl.org/dc/dcmitype/StillImage" />
        <dc:title></dc:title>
      </cc:Work>
    </rdf:RDF>
  </metadata>
  <g
     id="layer1"
     inkscape:groupmode="layer"
     inkscape:label="Layer 1">
    <path
       d="M 108,110 A 20,6 0 0 1 88,116 20,6 0 0 1 68,110 20,6 0 0 1 88,104 20,6 0 0 1 108,110 Z"
       style="fill:#37474f;stroke:none;stroke-width:8;stroke-linecap:round;stroke-linejoin:round;stroke-miterlimit:4;stroke-dasharray:none"
       id="path1205" />
    <path
       sodipodi:nodetypes="ssccss"
       d="M 88,20 C 90.216,20 92,21.784 92,24 V 110 H 84 V 24 C 84,21.784 85.784,20 88,20 Z"
       style="fill:#78909c;stroke:none;stroke-width:8;stroke-linecap:round;stroke-linejoin:round;stroke-miterlimit:4;stroke-dasharray:none"
       id="rect1208" />
    <path
       sodipodi:nodetypes="ccccc"
       id="path1210"
       d="M 84,24 C 64,16 44,32 24,24 V 80 C 44,88 64,72 84,80 V 24"
       style="fill:#d32f2f;stroke:none;stroke-width:1px;stroke-linecap:butt;stroke-linejoin:miter;stroke-opacity:1" />
  </g>
</svg>
